X:1
T:Title
%%score { ( 1 3 5 ) | ( 2 4 ) }
L:1/8
M:4/4
K:D
V:1 treble nm="Grand Piano"
V:3 treble 
V:5 treble 
V:2 bass 
V:4 bass 
V:1
 z4 z2[Q:1/4=106] D>E | F>[EG] [FA]>[GB] [FA]2 d>B | A6 z2 | F>[EG] [FA]>[GB] [FA]2 G>F | %4
 E6[K:bass] z2 | F>[EG] [FA]>[GB] [FA]2 [DF]>[FA] |[M:9/8] [Fd]>[Fd][Fd]- [Fd]/[FA]/ B2- BB>B | %7
[M:4/4] c>c c>c c2 B>c |[M:3/4] d2- [Gd-]>[Gd-] [Fd]2 |[M:1/4] F>A |[M:4/4] d6 z2 |[M:3/4] A6 | %12
[M:1/4] [FAd]>[FAd] |[M:4/4] [Ac]>[Ac] [Ac]>[Ac] [Ae]2 [^GB]>[Gc] | [EA]6 z2 | %15
[M:3/4] F>[EG] [FA]>[GB] [FA]2 |[M:1/4] [DF]>[FA] |[M:9/8] [Fd]>[Fd][Fd]- [Fd]/[FA]/ B2- BB>B | %18
[M:4/4] c>c c>c c2 B>c |[M:3/4] d2- [Gd-]>[Gd-] [Fd]2 |] %20
V:2
 z4 z2 [D,F,]>[D,G,D] | [D,A,D]>[D,A,] [D,D]>[D,D] [D,D]2[K:treble] F>G | F6[K:bass] z2 | %3
 [D,A,D]>[D,A,] [D,D]>[D,D] [D,D]2 E>D | C2 A,,>A,, A,,2 [D,F,]>[D,G,D] | %5
 [D,A,D]>[D,A,] [D,D]>[D,D] [D,D]2 [D,A,]>[D,D] | %6
[M:9/8] [D,A,]>[D,A,][D,A,]- [D,A,]/[D,D]/[K:treble] [G,DG]2- [G,DG][G,DG]>[G,DG] | %7
[M:4/4] [A,CG]>[A,EG] [A,EG]>[A,EG] [A,EG]2 [A,EG]>[A,EG] |[M:3/4][K:bass] z2 B,>B, A,2 | %9
[M:1/4] z z/[K:treble] F/ |[M:4/4] F6[K:bass][K:treble] z2 |[M:3/4] F6[K:bass] |[M:1/4] D,>D, | %13
[M:4/4] [E,E]>[E,E] [E,E]>[E,E] [E,C]2 [E,D]>[E,E] | [A,C]2 A,>A, A,G, [F,A,]>[E,A,D] | %15
[M:3/4] [D,A,D]>[D,A,] [D,D]>[D,D] [D,D]2 |[M:1/4] [D,A,]>[D,D] | %17
[M:9/8] [D,A,]>[D,A,][D,A,]- [D,A,]/[D,D]/[K:treble] [G,DG]2- [G,DG][G,DG]>[G,DG] | %18
[M:4/4] [A,CG]>[A,EG] [A,EG]>[A,EG] [A,EG]2 [A,EG]>[A,EG] |[M:3/4][K:bass] z2 B,>B, A,2 |] %20
V:3
 x8 | x8 | z2 D>B, A,2 D>E | x8 | z2 C4[K:bass] z2 | x8 |[M:9/8] x9 |[M:4/4] x8 | %8
[M:3/4] [DF]2 z2 z2 |[M:1/4] x2 |[M:4/4] z2 D>D D2 A>B |[M:3/4] z2 D>D D2 |[M:1/4] x2 |[M:4/4] x8 | %14
 z2 C>C C2 D>E |[M:3/4] x6 |[M:1/4] x2 |[M:9/8] x9 |[M:4/4] x8 |[M:3/4] [DF]2 z2 z2 |] %20
V:4
 x8 | x6[K:treble] x2 | z2[K:bass] D,>D, D,2 [D,F,]>[D,G,D] | x8 | x8 | x8 | %6
[M:9/8] x4[K:treble] x5 |[M:4/4] x8 |[M:3/4][K:bass] D,6 |[M:1/4] x3/2[K:treble] x/ | %10
[M:4/4] z2[K:bass] D,>D, D,2[K:treble] F>G |[M:3/4] z2[K:bass] D,>D, D,2 |[M:1/4] x2 |[M:4/4] x8 | %14
 x8 |[M:3/4] x6 |[M:1/4] x2 |[M:9/8] x4[K:treble] x5 |[M:4/4] x8 |[M:3/4][K:bass] D,6 |] %20
V:5
 x8 | x8 | x8 | x8 | z2 z z/[K:bass] B,/ A,G, D>E | x8 |[M:9/8] x9 |[M:4/4] x8 |[M:3/4] x6 | %9
[M:1/4] x2 |[M:4/4] x8 |[M:3/4] x6 |[M:1/4] x2 |[M:4/4] x8 | x8 |[M:3/4] x6 |[M:1/4] x2 | %17
[M:9/8] x9 |[M:4/4] x8 |[M:3/4] x6 |] %20

